icons-rebrand/svg/contrast-bold.svg

<svg xmlns="http://www.w3.org/2000/svg" width="32" height="32" viewBox="0 0 32 32"><path d="M23 4H9C7.6744 4.00159 6.40356 4.52888 5.46622 5.46622C4.52888 6.40356 4.00159 7.6744 4 9V23C4.00159 24.3256 4.52888 25.5964 5.46622 26.5338C6.40356 27.4711 7.6744 27.9984 9 28H23C24.3256 27.9984 25.5964 27.4711 26.5338 26.5338C27.4711 25.5964 27.9984 24.3256 28 23V9C27.9987 7.67432 27.4715 6.40332 26.5341 5.46593C25.5967 4.52853 24.3257 4.00132 23 4ZM25.7 7.715C25.895 8.115 25.998 8.555 26 9V11H22.414L25.7 7.715ZM20.414 13H26V16H17.414L20.414 13ZM15.414 18H26V21H12.414L15.414 18ZM6 9C6.00079 8.20459 6.31712 7.44199 6.87956 6.87956C7.44199 6.31712 8.20459 6.00079 9 6H23C23.446 6.002 23.885 6.105 24.285 6.3L6.301 24.286C6.105 23.886 6.002 23.446 6 23.001V9ZM23 26H9C8.55457 25.9978 8.11537 25.8952 7.715 25.7L10.415 23H26C25.9989 23.7953 25.6825 24.5578 25.1202 25.1202C24.5578 25.6825 23.7953 25.9989 23 26Z"/></svg>

<svg width="32" height="32" viewBox="0 0 32 32" xmlns="http://www.w3.org/2000/svg"><path d="M23 4H9a5.006 5.006 0 0 0-5 5v14a5.006 5.006 0 0 0 5 5h14a5.006 5.006 0 0 0 5-5V9a5.005 5.005 0 0 0-5-5Zm2.7 3.715c.195.4.298.84.3 1.285v2h-3.586L25.7 7.715ZM20.414 13H26v3h-8.586l3-3Zm-5 5H26v3H12.414l3-3ZM6 9a3.003 3.003 0 0 1 3-3h14c.446.002.885.105 1.285.3L6.301 24.286c-.196-.4-.299-.84-.301-1.285V9Zm17 17H9a2.966 2.966 0 0 1-1.285-.3l2.7-2.7H26a3.004 3.004 0 0 1-3 3Z"/></svg>
